packages/foundations/assets/icons/functional/images/environment/globe_20.svg

<svg width="20" height="20" viewBox="0 0 20 20" fill="none" xmlns="http://www.w3.org/2000/svg">
<g clip-path="url(#clip0_185_804)">
<path fill-rule="evenodd" clip-rule="evenodd" d="M10 2C12.1268 2 14.1561 2.8585 15.6585 4.3415C17.1415 5.8439 18 7.8732 18 10C18 14.4098 14.4098 18 10 18C5.5902 18 2 14.4098 2 10C2 5.5902 5.5902 2 10 2ZM6.268 10.9951H4.0774C4.4688 13.4261 6.3314 15.3505 8.7317 15.8732C7.8243 14.9078 6.7258 12.8344 6.268 10.9951ZM12.1363 10.9951H8.3403C9.2432 14.1418 10.6618 15.8335 11.4049 15.8335C11.8819 15.8335 12.2641 14.6176 12.2601 12.5376C12.2601 12.0687 12.2247 11.5499 12.1363 10.9951ZM15.9237 10.9951H14.1461C14.2354 11.5584 14.254 12.0852 14.263 12.5749C14.263 13.2596 14.1955 13.8762 14.078 14.4293C14.906 13.5821 15.715 12.4498 15.9237 10.9951ZM5.9024 5.6098C4.9708 6.4225 4.2808 7.7587 4.0779 9.0049H5.8727C5.7683 8.356 5.727 7.7901 5.7228 7.309C5.7228 6.5469 5.818 5.9962 5.9024 5.6098ZM11.4049 4.1659C12.1933 4.9936 13.4196 7.0558 13.7567 9.0049H15.9221C15.532 6.6164 13.7263 4.7167 11.4049 4.1659ZM8.5532 4.1665C8.1287 4.2655 7.7721 5.3824 7.7761 7.4624C7.7761 7.9313 7.8115 8.45 7.8998 9.0049H11.6959C10.7699 5.8582 9.3142 3.9888 8.5532 4.1665Z" fill="#1A1C1F"/>
</g>
<defs>
<clipPath id="clip0_185_804">
<rect width="20" height="20" fill="white"/>
</clipPath>
</defs>
</svg>

<svg xmlns="http://www.w3.org/2000/svg" width="20" height="20" fill="none"><g clip-path="url(#a)"><path fill="#1A1C1F" fill-rule="evenodd" d="M10 2a8.07 8.07 0 0 1 5.659 2.342A8.07 8.07 0 0 1 18 10c0 4.41-3.59 8-8 8s-8-3.59-8-8 3.59-8 8-8m-3.732 8.995h-2.19c.39 2.431 2.253 4.356 4.654 4.878-.908-.965-2.006-3.039-2.464-4.878m5.868 0H8.34c.903 3.147 2.322 4.839 3.065 4.839.477 0 .86-1.216.855-3.296a10 10 0 0 0-.124-1.543m3.788 0h-1.778c.09.563.108 1.09.117 1.58a9 9 0 0 1-.185 1.854c.828-.847 1.637-1.98 1.846-3.434M5.902 5.61c-.931.813-1.621 2.149-1.824 3.395h1.795a11 11 0 0 1-.15-1.696c0-.762.095-1.313.18-1.7m5.503-1.444c.788.828 2.015 2.89 2.352 4.839h2.165a5.98 5.98 0 0 0-4.517-4.84m-2.852 0c-.424.1-.78 1.216-.777 3.296 0 .47.035.988.124 1.543h3.796c-.926-3.147-2.382-5.016-3.143-4.839" clip-rule="evenodd"/></g><defs><clipPath id="a"><path fill="#fff" d="M0 0h20v20H0z"/></clipPath></defs></svg>
